src/pos-icons/roman-numeral-2.svg

<svg height="24" viewBox="0 0 24 24" width="24" xmlns="http://www.w3.org/2000/svg"><path d="m11 7v2h-1v6h1v2h-4v-2h1v-6h-1v-2zm6 0v2h-1v6h1v2h-4v-2h1v-6h-1v-2z"/></svg>

<?xml version="1.0" encoding="UTF-8"?><!DOCTYPE svg PUBLIC "-//W3C//DTD SVG 1.1//EN" "http://www.w3.org/Graphics/SVG/1.1/DTD/svg11.dtd"><svg xmlns="http://www.w3.org/2000/svg" xmlns:xlink="http://www.w3.org/1999/xlink" version="1.1" id="mdi-roman-numeral-2" width="24" height="24" viewBox="0 0 24 24"><path d="M11 7V9H10V15H11V17H7V15H8V9H7V7H11M17 7V9H16V15H17V17H13V15H14V9H13V7H17Z" /></svg>
